X:1
T:Title
%%score [ ( 1 2 ) ( 3 4 ) ] { ( 5 6 ) | ( 7 8 ) }
L:1/8
Q:1/4=120
M:4/4
K:Eb
V:1 treble nm="Midi_74"
V:2 treble 
V:3 bass nm="Midi_74"
V:4 bass 
V:5 treble nm="Org."
V:6 treble 
V:7 bass 
V:8 bass 
V:1
 G8 | A4 G4 | F8 || E8 | c4 d4 | e4 (A2 G2) | (G4 F4) || d8 | (e2 d2) (c2 B2) | e8 || c8 | %11
 (c2 B2) (A2 G2) | (F2 E2)"^John Camidge\n(1790-1859)" D4 | E8 |] %14
V:2
 E8 | F4 E4 | D8 || (C6 _D2) | (C2 E2) A4 | G4 (F2 E2) | (E4 D4) || F8 | F4 D4 | E8 || E8 | D4 E4 | %12
 C4 (B,2 A,2) | G,8 |] %14
V:3
 B,8 | B,4 B,4 | A,8 || (G,6 E,2) | E,4 B,4 | B,4 C4 | B,8 || B,8 | B,4 B,4 | B,8 || C8 | A,4 B,4 | %12
 A,4 F,4 | E,8 |] %14
V:4
 E,8 | D,4 E,4 | B,,8 || (C,6 B,,2) | A,,4 F,,4 | G,,4 A,,4 | B,,8 || B,,8 | B,4 A,4 | G,8 || A,8 | %11
 F,4 E,4 | A,,4 B,,4 | E,8 |] %14
V:5
 G8 | A4 G4 | F8 || E8 | c4 (d4 | e4) [FA]2 [EG]2 | [EG]4 [DF]4 || [Bd]8 | e2 d2 c2 B2 | e8 || c8 | %11
 c2 B2 A2 G2 | F2 E2 D4 | E8 |] %14
V:6
 [B,E]8 | [B,F]4 [B,E]4 | [A,D]8 || [G,C]6 _D2 | [CEA]4 [DAB]4 | [EGB]4 C4 | x8 || [DF]8 | %8
 [FB]4 [DF]4 | [EB]8 || E8 | [DF]4 E4 | C4 x4 | x8 |] %14
V:7
 x8 | x8 | x8 || E,8- | E,4 x4 | x8 | x8 || x8 | x8 | x4 x4 || x8 | x8 | x4 B,2 A,2 | x8 |] %14
V:8
 [E,,E,]8 | [D,,D,]4 [E,,E,]4 | [B,,,B,,]8 || C,6 B,,2 | A,,4 [F,,B,,F,]4 | [G,,B,,G,]4 [A,,A,]4 | %6
 [B,,B,]8 || [B,,B,]8 | [B,,B,]4 [A,,A,]4 | [G,,G,]8 || [A,,A,]6 [G,,G,]2 | [F,,F,]4 [E,,E,]4 | %12
 [A,,A,]4 [B,,F,]4 | [E,,E,G,B,]8 |] %14

